X:87
M:6/8
L:1/8
Q:3/8=110
K:D
e2 e e2 e|dcB cAd|fef def|gfg efg|agf agf|
eee e2 a|aaa a2 a|aaa a2 a|afd Bec|ddd d2:|

